_inc/systems/logos/gba.svg

<?xml version="1.0" encoding="utf-8"?>
<svg id="svg2" version="1.1" viewBox="0 0 264 73" xmlns="http://www.w3.org/2000/svg">
  <g transform="matrix(0.880001, 0, 0, 0.875525, 0.000039, -0.000066)">
    <path d="M 286.97198486328125 0.484000027179718 L 300 0.484000027179718 L 281.63299560546875 29.05699920654297 L 278.65399169921875 51.347999572753906 L 266.8800048828125 51.347999572753906 L 270.33099365234375 25.913000106811523 L 258.5570068359375 0.484000027179718 L 271.2720031738281 0.484000027179718 L 277.5539855957031 14.928999900817871 Z" id="_43443024" style="fill: rgb(255, 255, 255);"/>
    <path d="M 149.7729949951172 31.253000259399414 L 165.30999755859375 31.253000259399414 L 166.88099670410156 19.951000213623047 L 151.49899291992188 19.951000213623047 L 152.60000610351562 11.78600025177002 L 170.49099731445312 11.78600025177002 L 172.2209930419922 0.484000027179718 L 142.55099487304688 0.484000027179718 L 135.48699951171875 51.347999572753906 L 164.9980010986328 51.347999572753906 L 166.5679931640625 40.04100036621094 L 148.67300415039062 40.04100036621094 Z" id="_43441624" style="fill: rgb(255, 255, 255);"/>
    <path id="_43775888" d="M 59.352 26.227 L 63.277 15.71 L 64.534 26.227 L 59.353 26.227 Z M 55.114 36.274 L 65.787 36.274 L 67.673 51.344 L 86.98 51.344 L 95.929 23.715 L 100.325 51.344 L 110.53 51.344 L 121.832 22.146 L 123.716 51.344 L 135.017 51.344 L 131.878 0.482 L 118.377 0.482 L 107.858 27.325 L 103.776 0.482 L 91.689 0.482 L 77.874 42.239 L 72.694 0.482 L 57.624 0.482 L 40.826 42.708 L 43.024 26.227 L 22.614 26.227 L 21.2 36.272 L 30.149 36.272 L 29.52 39.726 C 27.951 40.667 24.341 40.825 22.928 40.825 C 21.516 40.825 10.998 39.884 11.468 28.58 C 11.936 17.279 27.005 6.761 44.901 12.569 L 46.629 1.737 C 34.698 -2.343 3.363 -0.059 0.161 27.952 C -1.721 44.436 13.35 52.285 23.395 52.13 C 29.203 52.444 35.798 50.246 38.151 48.989 L 37.367 51.344 L 49.298 51.344 L 55.106 36.274 Z" style="fill: rgb(255, 255, 255);"/>
    <path id="_44102912" d="M 245.841 0.014 C 237.678 -0.301 225.904 4.409 221.98 23.404 C 218.056 42.397 228.572 50.09 238.306 51.347 C 248.039 52.602 261.697 46.48 264.207 28.271 C 266.722 10.06 257.768 0.485 245.841 0.014 Z M 244.588 10.846 C 247.884 10.846 254.947 13.044 253.22 26.228 C 251.494 39.415 243.331 40.985 240.349 40.672 C 237.364 40.356 231.243 38.317 232.97 26.228 C 234.7 14.143 241.135 10.688 244.591 10.846 Z" style="fill: rgb(255, 255, 255);"/>
    <path id="_44104296" d="M 196.234 19.951 L 202.828 19.951 C 207.693 19.951 208.636 16.811 208.791 15.556 C 208.948 14.3 207.536 11.788 205.026 11.788 L 197.334 11.788 L 196.238 19.951 Z M 193.408 40.044 L 202.357 40.044 C 207.222 40.044 208.321 36.277 208.478 35.02 C 208.635 33.765 207.222 31.253 204.711 31.253 L 194.665 31.253 L 193.41 40.044 Z M 180.226 51.347 L 187.291 0.485 L 208.953 0.485 C 214.135 0.485 221.669 6.452 220.728 14.456 C 219.786 22.463 217.274 22.935 215.547 24.19 C 218.217 26.543 220.884 30.31 219.786 37.375 C 218.686 44.441 212.878 51.347 202.676 51.347 L 180.227 51.347 Z" style="fill: rgb(255, 255, 255);"/>
    <path id="path12" d="M 61.895 56.917 L 55.235 56.917 L 39.537 83.346 L 58.226 83.346 L 58.226 77.487 L 50.609 77.487 L 58.226 63.825 L 69.268 83.378 L 77.779 83.378 L 77.779 83.316 L 91.07 83.316 C 102.573 83.316 108.341 78.875 108.341 70.087 C 108.341 68.575 108.155 67.157 107.754 65.831 L 118.362 83.317 L 123.451 83.317 L 138.716 56.95 L 130.636 56.95 L 121.105 74.217 L 111.052 56.948 L 102.356 56.948 L 104.761 60.895 C 101.956 58.243 97.915 56.948 92.642 56.948 L 75.156 56.948 L 75.156 78.873 L 61.895 56.917 L 61.895 56.917 Z M 82.681 62.898 L 92.705 62.898 C 97.915 62.898 100.567 65.181 100.567 69.744 C 100.567 72.49 99.736 74.495 98.162 75.542 C 96.65 76.622 93.783 77.146 89.774 77.146 L 82.712 77.146 L 82.712 62.898 L 82.681 62.898 Z" style="fill-opacity: 1; fill: rgb(255, 255, 255);"/>
    <path d="M 149.9720001220703 56.91699981689453 L 143.27999877929688 56.91699981689453 L 127.64299774169922 83.34500122070312 L 135.53900146484375 83.34500122070312 L 135.53900146484375 83.28299713134766 L 146.33200073242188 83.28299713134766 L 146.33200073242188 77.39299774169922 L 138.7779998779297 77.39299774169922 L 146.27200317382812 63.79399871826172 L 157.31199645996094 83.34500122070312 L 165.9149932861328 83.34500122070312 L 165.9149932861328 83.28299713134766 L 170.2949981689453 83.28299713134766 L 170.2949981689453 67.33999633789062 L 190.2480010986328 83.28299713134766 L 195.42799377441406 83.28299713134766 L 195.42799377441406 56.91699981689453 L 188.52000427246094 56.91699981689453 L 188.52000427246094 72.67400360107422 L 168.3820037841797 56.91699981689453 L 163.2310028076172 56.91699981689453 L 163.2310028076172 78.84300231933594 Z" id="polygon14" style="fill-opacity: 1; fill: rgb(255, 255, 255);"/>
    <path id="path16" d="M 199.376 58.395 C 198.296 59.353 197.742 61.079 197.742 63.547 L 197.742 76.622 C 197.742 79.151 198.296 80.878 199.345 81.834 C 200.363 82.791 202.212 83.284 204.928 83.284 L 220.439 83.284 C 223.123 83.284 225.065 82.791 226.083 81.834 C 227.1 80.879 227.687 79.151 227.687 76.622 L 227.687 72.952 L 220.07 72.83 L 220.07 76.9 L 205.328 76.9 L 205.328 63.054 L 220.07 63.054 L 220.07 66.662 L 227.687 66.662 L 227.687 63.547 C 227.687 60.957 227.101 59.229 226.083 58.395 C 225.065 57.378 223.277 56.885 220.439 56.885 L 204.928 56.885 C 202.244 56.917 200.393 57.38 199.376 58.395 L 199.376 58.395 Z" style="fill-opacity: 1; fill: rgb(255, 255, 255);"/>
    <path d="M 237.83200073242188 66.69300079345703 L 237.83200073242188 62.89799880981445 L 258.4010009765625 62.89799880981445 L 258.4010009765625 56.91699981689453 L 230.21499633789062 56.91699981689453 L 230.21499633789062 83.28299713134766 L 258.739990234375 83.28299713134766 L 258.739990234375 77.177001953125 L 237.83200073242188 77.177001953125 L 237.83200073242188 72.48999786376953 L 249.88999938964844 72.48999786376953 L 249.88999938964844 66.69300079345703 Z" id="polygon18" style="fill-opacity: 1; fill: rgb(255, 255, 255);"/>
  </g>
</svg>

<svg xmlns="http://www.w3.org/2000/svg" viewBox="0 0 264 73"><path d="M286.97.48H300l-18.37 28.58-2.98 22.29h-11.77l3.45-25.44L258.56.48h12.71l6.28 14.45Zm-137.2 30.77h15.54l1.57-11.3H151.5l1.1-8.16h17.9l1.72-11.3h-29.67l-7.06 50.86h29.5l1.58-11.3h-17.9Zm-90.42-5.02 3.93-10.52 1.25 10.52zm-4.24 10.04H65.8l1.88 15.07h19.31l8.95-27.63 4.4 27.63h10.2l11.3-29.2 1.89 29.2h11.3L131.88.48h-13.5l-10.52 26.85L103.78.47h-12.1l-13.8 41.76L72.68.48H57.62l-16.8 42.23 2.2-16.48h-20.4L21.2 36.27h8.95l-.63 3.46c-1.57.94-5.18 1.1-6.6 1.1-1.4 0-11.92-.95-11.45-12.25S27 6.76 44.9 12.57l1.73-10.83C34.7-2.34 3.36-.06.16 27.95-1.72 44.44 13.35 52.28 23.4 52.13c5.8.31 12.4-1.88 14.75-3.14l-.78 2.35H49.3z" style="fill:#fff" transform="scale(.88 .87552)"/><path d="M245.84.01c-8.16-.31-19.94 4.4-23.86 23.4-3.92 18.99 6.6 26.68 16.33 27.94 9.73 1.25 23.39-4.87 25.9-23.08S257.77.5 245.84.01m-1.25 10.84c3.3 0 10.36 2.2 8.63 15.38s-9.89 14.76-12.87 14.44c-2.99-.31-9.1-2.35-7.38-14.44 1.73-12.09 8.16-15.54 11.62-15.38" style="fill:#fff" transform="scale(.88 .87552)"/><path d="M196.23 19.95h6.6c4.86 0 5.8-3.14 5.96-4.4.16-1.25-1.25-3.76-3.76-3.76h-7.7zm-2.82 20.1h8.95a5.74 5.74 0 0 0 6.12-5.03c.16-1.26-1.26-3.77-3.77-3.77h-10.05zm-13.18 11.3L187.29.49h21.66c5.19 0 12.72 5.96 11.78 13.97-.94 8-3.46 8.47-5.18 9.73 2.67 2.35 5.33 6.12 4.24 13.18-1.1 7.07-6.91 13.98-17.11 13.98z" style="fill:#fff" transform="scale(.88 .87552)"/><path d="M61.9 56.92h-6.66l-15.7 26.43h18.69v-5.86H50.6l7.62-13.66 11.04 19.55h8.5v-.06h13.3c11.5 0 17.27-4.44 17.27-13.23q0-2.27-.59-4.26l10.61 17.49h5.1l15.26-26.37h-8.08l-9.53 17.27-10.06-17.27h-8.7l2.41 3.95q-4.2-3.97-12.12-3.95H75.16v21.92zm20.78 5.98H92.7c5.22 0 7.87 2.28 7.87 6.84 0 2.75-.83 4.76-2.4 5.8-1.52 1.08-4.39 1.6-8.4 1.6h-7.06V62.9zm67.29-5.98h-6.69l-15.64 26.43h7.9v-.07h10.8V77.4h-7.56l7.5-13.6 11.03 19.56h8.6v-.07h4.38V67.34l19.96 15.94h5.18V56.92h-6.91v15.75l-20.14-15.75h-5.15v21.92Zm49.41 1.48q-1.63 1.44-1.64 5.15v13.07q.02 3.79 1.6 5.21 1.52 1.45 5.59 1.45h15.5c2.7 0 4.63-.49 5.65-1.45 1.02-.95 1.6-2.68 1.6-5.2v-3.68l-7.61-.12v4.07h-14.74V63.05h14.74v3.61h7.62v-3.11c0-2.6-.59-4.32-1.6-5.15-1.03-1.02-2.81-1.52-5.65-1.52h-15.51c-2.69.04-4.54.5-5.55 1.52m38.45 8.3v-3.8h20.57v-5.98h-28.19v26.36h28.53v-6.1h-20.9v-4.69h12.05v-5.8Z" style="fill-opacity:1;fill:#fff" transform="scale(.88 .87552)"/></svg>
